static/fa/svgs/solid/person-biking.svg

<svg xmlns="http://www.w3.org/2000/svg" viewBox="0 0 640 512"><!--! Font Awesome Free 6.1.1 by @fontawesome - https://fontawesome.com License - https://fontawesome.com/license/free (Icons: CC BY 4.0, Fonts: SIL OFL 1.1, Code: MIT License) Copyright 2022 Fonticons, Inc.--><path d="M352 48c0-26.51 21.5-48 48-48s48 21.49 48 48-21.5 48-48 48-48-21.49-48-48zm128 111.1c17.7 0 32 15.2 32 32 0 18.6-14.3 32-32 32h-64c-7.3 0-14.3-1.6-20-7l-40.7-31.7-60.3 48.5 42.8 28.5c8.9 5.9 14.2 15.9 14.2 26.6v128c0 17.7-14.3 32-32 32s-32-14.3-32-32V305.1l-60.5-38.3c-32.8-21.7-35-67.9-4.3-91.6l83.1-64.3c17.5-13.45 41.8-13.32 59.1.3l61.8 47.9H480zM256 384c0 70.7-57.3 128-128 128C57.31 512 0 454.7 0 384s57.31-128 128-128c70.7 0 128 57.3 128 128zm-128-72c-39.76 0-72 32.2-72 72s32.24 72 72 72c39.8 0 72-32.2 72-72s-32.2-72-72-72zm512 72c0 70.7-57.3 128-128 128s-128-57.3-128-128 57.3-128 128-128 128 57.3 128 128zm-128-72c-39.8 0-72 32.2-72 72s32.2 72 72 72 72-32.2 72-72-32.2-72-72-72z"/></svg>

<svg xmlns="http://www.w3.org/2000/svg" viewBox="0 0 640 512"><!--! Font Awesome Free 6.1.1 by @fontawesome - https://fontawesome.com License - https://fontawesome.com/license/free (Icons: CC BY 4.0, Fonts: SIL OFL 1.1, Code: MIT License) Copyright 2022 Fonticons, Inc. --><path d="M352 48C352 21.49 373.5 0 400 0C426.5 0 448 21.49 448 48C448 74.51 426.5 96 400 96C373.5 96 352 74.51 352 48zM480 159.1C497.7 159.1 512 174.3 512 191.1C512 209.7 497.7 223.1 480 223.1H416C408.7 223.1 401.7 221.5 396 216.1L355.3 184.4L295 232.9L337.8 261.4C346.7 267.3 352 277.3 352 288V416C352 433.7 337.7 448 320 448C302.3 448 288 433.7 288 416V305.1L227.5 266.8C194.7 245.1 192.5 198.9 223.2 175.2L306.3 110.9C323.8 97.45 348.1 97.58 365.4 111.2L427.2 159.1H480zM256 384C256 454.7 198.7 512 128 512C57.31 512 0 454.7 0 384C0 313.3 57.31 256 128 256C198.7 256 256 313.3 256 384zM128 312C88.24 312 56 344.2 56 384C56 423.8 88.24 456 128 456C167.8 456 200 423.8 200 384C200 344.2 167.8 312 128 312zM640 384C640 454.7 582.7 512 512 512C441.3 512 384 454.7 384 384C384 313.3 441.3 256 512 256C582.7 256 640 313.3 640 384zM512 312C472.2 312 440 344.2 440 384C440 423.8 472.2 456 512 456C551.8 456 584 423.8 584 384C584 344.2 551.8 312 512 312z"/></svg>
